X: 12046
T: Ernie's Tune
R: reel
M: 4/4
K: Amajor
E2 A2|c3 c1 c2 c2|d2 c2 B2 A2|A3 B A2 F2|E4 E2 A2|c3 c c2 c2|d2 c2 B2 A2|c4 B4|B4 E2 A2|
c3 c1 c2 c2|d2 c2 B2 A2|A3 B A2 F2|E4 B2 c2|d3 e d2 B2|G2 E2 c2 B2|A4 A3 B|A4 c2 d2|
e3 e e2 e2|f2 e2 c2 B2|A3 B A2 F2|E4 c2 d2|e3 e e2 e2|f2 e2 d2 c2|c4 B4|B4 E2 A2|
c3 c1 c2 c2|d2 c2 B2 A2|A3 B A2 F2|E4 B2 c2|d3 e d2 B2|G2 E2 c2 B2|A4 A3 B|A4:|

